src/img/sprite.svg

<svg aria-hidden="true" style="position: absolute; width: 0; height: 0; overflow: hidden;" version="1.1" xmlns="http://www.w3.org/2000/svg" xmlns:xlink="http://www.w3.org/1999/xlink">
<defs>
<symbol id="icon-log-in" viewBox="0 0 32 32">
<path fill="none" stroke="#f4c550" style="stroke: var(--color1, #f4c550)" stroke-linejoin="round" stroke-linecap="round" stroke-miterlimit="4" stroke-width="3.2" d="M20 4h1.6c2.24 0 3.36 0 4.216 0.436 0.753 0.383 1.364 0.995 1.748 1.748 0.436 0.856 0.436 1.976 0.436 4.216v11.2c0 2.24 0 3.36-0.436 4.216-0.384 0.753-0.995 1.364-1.748 1.748-0.856 0.436-1.976 0.436-4.216 0.436h-1.6"></path>
<path fill="none" stroke="#f4c550" style="stroke: var(--color1, #f4c550)" stroke-linejoin="round" stroke-linecap="round" stroke-miterlimit="4" stroke-width="3.2" d="M13.333 9.333l6.667 6.667M20 16l-6.667 6.667M20 16h-16"></path>
</symbol>
<symbol id="icon-star" viewBox="0 0 32 32">
<path fill="#ffc531" style="fill: var(--color2, #ffc531); stroke: var(--color2, #ffc531)" stroke="#ffc531" stroke-linejoin="miter" stroke-linecap="butt" stroke-miterlimit="4" stroke-width="2.4" d="M19.6 9.395c0.318 0.603 0.898 1.024 1.57 1.141l7.6 1.313-5.375 5.535c-0.475 0.489-0.697 1.171-0.6 1.846l1.098 7.635-6.922-3.402-0.234-0.1c-0.476-0.169-0.996-0.169-1.473 0l-0.234 0.1-6.924 3.402 1.1-7.635c0.097-0.675-0.125-1.357-0.6-1.846l-5.377-5.535 7.602-1.313c0.672-0.116 1.252-0.538 1.57-1.141l3.6-6.822 3.6 6.822z"></path>
</symbol>
<symbol id="icon-ukraine" viewBox="0 0 32 32">
<path fill="#ffda44" style="fill: var(--color3, #ffda44)" d="M16 32c8.837 0 16-7.163 16-16s-7.163-16-16-16c-8.837 0-16 7.163-16 16s7.163 16 16 16z"></path>
<path fill="#338af3" style="fill: var(--color4, #338af3)" d="M0 16c0-8.836 7.163-16 16-16s16 7.163 16 16z"></path>
</symbol>
<symbol id="icon-book-open" viewBox="0 0 32 32">
<path stroke-linejoin="round" stroke-linecap="round" stroke-miterlimit="4" stroke-width="3" d="M29.333 8.267c0-1.493 0-2.24-0.291-2.811-0.256-0.502-0.664-0.91-1.165-1.165-0.571-0.291-1.317-0.291-2.811-0.291h-0.533c-2.987 0-4.48 0-5.621 0.581-1.004 0.511-1.819 1.327-2.331 2.331-0.581 1.141-0.581 2.634-0.581 5.621v15.467l0.133-0.2c0.926-1.389 1.389-2.084 2.001-2.587 0.542-0.445 1.166-0.779 1.837-0.983 0.758-0.23 1.593-0.23 3.262-0.23h1.833c1.494 0 2.24 0 2.811-0.291 0.502-0.256 0.91-0.664 1.165-1.165 0.291-0.57 0.291-1.317 0.291-2.811v-11.467z"></path>
<path stroke-linejoin="round" stroke-linecap="round" stroke-miterlimit="4" stroke-width="3" d="M2.667 8.267c0-1.493 0-2.24 0.291-2.811 0.256-0.502 0.664-0.91 1.165-1.165 0.57-0.291 1.317-0.291 2.811-0.291h0.533c2.987 0 4.48 0 5.621 0.581 1.004 0.511 1.819 1.327 2.331 2.331 0.581 1.141 0.581 2.634 0.581 5.621v15.467l-0.133-0.2c-0.926-1.389-1.389-2.084-2.001-2.587-0.542-0.445-1.166-0.779-1.837-0.983-0.758-0.23-1.593-0.23-3.262-0.23h-1.833c-1.493 0-2.24 0-2.811-0.291-0.502-0.256-0.91-0.664-1.165-1.165-0.291-0.57-0.291-1.317-0.291-2.811v-11.467z"></path>
</symbol>
<symbol id="icon-hover" viewBox="0 0 32 32">
<path fill="#f4c550" style="fill: var(--color1, #f4c550); stroke: var(--color1, #f4c550)" stroke="#f4c550" stroke-linejoin="round" stroke-linecap="round" stroke-miterlimit="4" stroke-width="1.2308" d="M27.787 6.147c-0.681-0.681-1.49-1.222-2.379-1.591s-1.844-0.559-2.807-0.559-1.917 0.19-2.807 0.559c-0.89 0.369-1.699 0.909-2.38 1.591l-1.413 1.413-1.413-1.413c-1.376-1.376-3.241-2.148-5.187-2.148s-3.811 0.773-5.187 2.148c-1.376 1.376-2.148 3.241-2.148 5.187s0.773 3.811 2.148 5.187l11.787 11.787 11.787-11.787c0.681-0.681 1.222-1.49 1.591-2.379s0.559-1.844 0.559-2.807-0.19-1.917-0.559-2.807c-0.369-0.89-0.909-1.699-1.591-2.38z"></path>
</symbol>
<symbol id="icon-normal" viewBox="0 0 32 32">
<path stroke-linejoin="round" stroke-linecap="round" stroke-miterlimit="4" stroke-width="2.4615" d="M27.787 6.147c-0.681-0.681-1.49-1.222-2.379-1.591s-1.844-0.559-2.807-0.559-1.917 0.19-2.807 0.559c-0.89 0.369-1.699 0.909-2.38 1.591l-1.413 1.413-1.413-1.413c-1.376-1.376-3.241-2.148-5.187-2.148s-3.811 0.773-5.187 2.148c-1.376 1.376-2.148 3.241-2.148 5.187s0.773 3.811 2.148 5.187l11.787 11.787 11.787-11.787c0.681-0.681 1.222-1.49 1.591-2.379s0.559-1.844 0.559-2.807-0.19-1.917-0.559-2.807c-0.369-0.89-0.909-1.699-1.591-2.38z"></path>
</symbol>
<symbol id="icon-group" viewBox="0 0 32 32">
<path fill="#fff" style="fill: var(--color5, #fff)" d="M32 16c0 8.837-7.163 16-16 16s-16-7.163-16-16c0-8.837 7.163-16 16-16s16 7.163 16 16z"></path>
<path fill="#38cd3e" style="fill: var(--color6, #38cd3e)" d="M26.667 16c0 5.891-4.776 10.667-10.667 10.667s-10.667-4.776-10.667-10.667c0-5.891 4.776-10.667 10.667-10.667s10.667 4.776 10.667 10.667z"></path>
</symbol>
<symbol id="icon-eye-off" viewBox="0 0 24 24">
<path d="M10.128 5.214c0.651-0.152 1.296-0.221 1.86-0.214 1.758 0 3.309 0.559 4.658 1.393 1.119 0.692 2.089 1.567 2.894 2.448 0.644 0.705 1.175 1.405 1.585 2.001 0.327 0.475 0.57 0.874 0.733 1.155-0.546 0.953-1.16 1.821-1.778 2.542-0.359 0.419-0.311 1.051 0.108 1.41s1.051 0.311 1.41-0.108c0.818-0.954 1.611-2.112 2.283-3.37 0.148-0.279 0.163-0.618 0.013-0.919 0 0-0.396-0.789-1.12-1.843-0.451-0.656-1.038-1.432-1.757-2.218-0.894-0.979-2.004-1.987-3.319-2.8-1.595-0.985-3.506-1.691-5.686-1.691-0.734-0.009-1.54 0.079-2.34 0.266-0.538 0.126-0.872 0.664-0.746 1.202s0.664 0.872 1.202 0.746zM10.027 11.442l2.531 2.531c-0.182 0.061-0.372 0.094-0.563 0.101-0.513 0.018-1.030-0.159-1.434-0.536s-0.617-0.88-0.635-1.393c-0.008-0.238 0.025-0.476 0.101-0.704zM5.983 7.397l2.553 2.553c-0.434 0.691-0.636 1.484-0.608 2.266 0.036 1.022 0.463 2.033 1.271 2.785s1.846 1.107 2.868 1.071c0.692-0.024 1.379-0.228 1.984-0.608l2.322 2.322c-1.378 0.799-2.895 1.196-4.384 1.214-1.734 0-3.285-0.559-4.634-1.393-1.119-0.692-2.089-1.567-2.894-2.448-0.644-0.705-1.175-1.405-1.585-2.001-0.326-0.475-0.57-0.873-0.732-1.154 1.050-1.822 2.376-3.379 3.841-4.607zM0.293 1.707l4.271 4.271c-1.731 1.479-3.269 3.358-4.445 5.549-0.148 0.279-0.164 0.619-0.013 0.92 0 0 0.396 0.789 1.12 1.843 0.451 0.656 1.038 1.432 1.757 2.218 0.894 0.979 2.004 1.987 3.319 2.8 1.595 0.986 3.506 1.692 5.71 1.692 1.993-0.024 4.019-0.601 5.815-1.759l4.466 4.466c0.391 0.391 1.024 0.391 1.414 0s0.391-1.024 0-1.414l-8.876-8.876c-0.002-0.002-0.005-0.005-0.007-0.007l-4.209-4.21c-0.008-0.007-0.016-0.016-0.024-0.024l-8.884-8.883c-0.391-0.391-1.024-0.391-1.414 0s-0.391 1.024 0 1.414z"></path>
</symbol>
<symbol id="icon-eye" viewBox="0 0 24 24">
<path d="M0.106 11.553c-0.136 0.274-0.146 0.603 0 0.894 0 0 0.396 0.789 1.12 1.843 0.451 0.656 1.038 1.432 1.757 2.218 0.894 0.979 2.004 1.987 3.319 2.8 1.595 0.986 3.506 1.692 5.698 1.692s4.103-0.706 5.698-1.692c1.315-0.813 2.425-1.821 3.319-2.8 0.718-0.786 1.306-1.562 1.757-2.218 0.724-1.054 1.12-1.843 1.12-1.843 0.136-0.274 0.146-0.603 0-0.894 0 0-0.396-0.789-1.12-1.843-0.451-0.656-1.038-1.432-1.757-2.218-0.894-0.979-2.004-1.987-3.319-2.8-1.595-0.986-3.506-1.692-5.698-1.692s-4.103 0.706-5.698 1.692c-1.315 0.813-2.425 1.821-3.319 2.8-0.719 0.786-1.306 1.561-1.757 2.218-0.724 1.054-1.12 1.843-1.12 1.843zM2.14 12c0.163-0.281 0.407-0.681 0.734-1.158 0.41-0.596 0.94-1.296 1.585-2.001 0.805-0.881 1.775-1.756 2.894-2.448 1.35-0.834 2.901-1.393 4.647-1.393s3.297 0.559 4.646 1.393c1.119 0.692 2.089 1.567 2.894 2.448 0.644 0.705 1.175 1.405 1.585 2.001 0.328 0.477 0.572 0.876 0.734 1.158-0.163 0.281-0.407 0.681-0.734 1.158-0.41 0.596-0.94 1.296-1.585 2.001-0.805 0.881-1.775 1.756-2.894 2.448-1.349 0.834-2.9 1.393-4.646 1.393s-3.297-0.559-4.646-1.393c-1.119-0.692-2.089-1.567-2.894-2.448-0.644-0.705-1.175-1.405-1.585-2.001-0.328-0.477-0.572-0.877-0.735-1.158zM16 12c0-1.104-0.449-2.106-1.172-2.828s-1.724-1.172-2.828-1.172-2.106 0.449-2.828 1.172-1.172 1.724-1.172 2.828 0.449 2.106 1.172 2.828 1.724 1.172 2.828 1.172 2.106-0.449 2.828-1.172 1.172-1.724 1.172-2.828zM14 12c0 0.553-0.223 1.051-0.586 1.414s-0.861 0.586-1.414 0.586-1.051-0.223-1.414-0.586-0.586-0.861-0.586-1.414 0.223-1.051 0.586-1.414 0.861-0.586 1.414-0.586 1.051 0.223 1.414 0.586 0.586 0.861 0.586 1.414z"></path>
</symbol>
</defs>
</svg>

<svg xmlns="http://www.w3.org/2000/svg" aria-hidden="true" style="position:absolute;width:0;height:0;overflow:hidden">
  <defs>
    <symbol id="icon-log-in" viewBox="0 0 32 32">
      <path fill="none" stroke="#f4c550" stroke-linecap="round" stroke-linejoin="round" stroke-width="3.2" d="M20 4h1.6c2.24 0 3.36 0 4.216.436a3.996 3.996 0 0 1 1.748 1.748C28 7.04 28 8.16 28 10.4v11.2c0 2.24 0 3.36-.436 4.216a4.001 4.001 0 0 1-1.748 1.748C24.96 28 23.84 28 21.6 28H20M13.333 9.333 20 16m0 0-6.667 6.667M20 16H4" style="stroke:var(--color1, #f4c550)"/>
    </symbol>
    <symbol id="icon-star" viewBox="0 0 32 32">
      <path fill="#ffc531" stroke="#ffc531" stroke-width="2.4" d="M19.6 9.395a2.201 2.201 0 0 0 1.57 1.141l7.6 1.313-5.375 5.535a2.2 2.2 0 0 0-.6 1.846l1.098 7.635-6.922-3.402-.234-.1a2.203 2.203 0 0 0-1.473 0l-.234.1-6.924 3.402 1.1-7.635a2.2 2.2 0 0 0-.6-1.846l-5.377-5.535 7.602-1.313a2.198 2.198 0 0 0 1.57-1.141l3.6-6.822 3.6 6.822z" style="fill:var(--color2, #ffc531);stroke:var(--color2, #ffc531)"/>
    </symbol>
    <symbol id="icon-ukraine" viewBox="0 0 32 32">
      <path fill="#ffda44" d="M16 32c8.837 0 16-7.163 16-16S24.837 0 16 0 0 7.163 0 16s7.163 16 16 16z" style="fill:var(--color3, #ffda44)"/>
      <path fill="#338af3" d="M0 16C0 7.164 7.163 0 16 0s16 7.163 16 16z" style="fill:var(--color4, #338af3)"/>
    </symbol>
    <symbol id="icon-book-open" viewBox="0 0 32 32">
      <path stroke-linecap="round" stroke-linejoin="round" stroke-width="3" d="M29.333 8.267c0-1.493 0-2.24-.291-2.811a2.666 2.666 0 0 0-1.165-1.165C27.306 4 26.56 4 25.066 4h-.533c-2.987 0-4.48 0-5.621.581a5.331 5.331 0 0 0-2.331 2.331C16 8.053 16 9.546 16 12.533V28l.133-.2c.926-1.389 1.389-2.084 2.001-2.587a5.345 5.345 0 0 1 1.837-.983c.758-.23 1.593-.23 3.262-.23h1.833c1.494 0 2.24 0 2.811-.291.502-.256.91-.664 1.165-1.165.291-.57.291-1.317.291-2.811V8.266zM2.667 8.267c0-1.493 0-2.24.291-2.811.256-.502.664-.91 1.165-1.165C4.693 4 5.44 4 6.934 4h.533c2.987 0 4.48 0 5.621.581a5.331 5.331 0 0 1 2.331 2.331C16 8.053 16 9.546 16 12.533V28l-.133-.2c-.926-1.389-1.389-2.084-2.001-2.587a5.345 5.345 0 0 0-1.837-.983C11.271 24 10.436 24 8.767 24H6.934c-1.493 0-2.24 0-2.811-.291a2.666 2.666 0 0 1-1.165-1.165c-.291-.57-.291-1.317-.291-2.811V8.266z"/>
    </symbol>
    <symbol id="icon-hover" viewBox="0 0 32 32">
      <path fill="#f4c550" stroke="#f4c550" stroke-linecap="round" stroke-linejoin="round" stroke-width="1.231" d="M27.787 6.147a7.326 7.326 0 0 0-10.373 0L16.001 7.56l-1.413-1.413a7.333 7.333 0 0 0-10.374 0 7.333 7.333 0 0 0 0 10.374l11.787 11.787 11.787-11.787a7.326 7.326 0 0 0 0-10.373z" style="fill:var(--color1, #f4c550);stroke:var(--color1, #f4c550)"/>
    </symbol>
    <symbol id="icon-normal" viewBox="0 0 32 32">
      <path stroke-linecap="round" stroke-linejoin="round" stroke-width="2.462" d="M27.787 6.147a7.326 7.326 0 0 0-10.373 0L16.001 7.56l-1.413-1.413a7.333 7.333 0 0 0-10.374 0 7.333 7.333 0 0 0 0 10.374l11.787 11.787 11.787-11.787a7.326 7.326 0 0 0 0-10.373z"/>
    </symbol>
    <symbol id="icon-group" viewBox="0 0 32 32">
      <path fill="#fff" d="M32 16c0 8.837-7.163 16-16 16S0 24.837 0 16 7.163 0 16 0s16 7.163 16 16z" style="fill:var(--color5, #fff)"/>
      <path fill="#38cd3e" d="M26.667 16c0 5.891-4.776 10.667-10.667 10.667S5.333 21.891 5.333 16 10.109 5.333 16 5.333 26.667 10.109 26.667 16z" style="fill:var(--color6, #38cd3e)"/>
    </symbol>
    <symbol id="icon-eye-off" viewBox="0 0 24 24">
      <path d="M10.128 5.214A7.908 7.908 0 0 1 11.988 5c1.758 0 3.309.559 4.658 1.393 1.119.692 2.089 1.567 2.894 2.448a18.701 18.701 0 0 1 2.318 3.156 16.723 16.723 0 0 1-1.778 2.542 1 1 0 0 0 1.518 1.302 18.991 18.991 0 0 0 2.283-3.37 1 1 0 0 0 .013-.919s-.396-.789-1.12-1.843a20.553 20.553 0 0 0-1.757-2.218c-.894-.979-2.004-1.987-3.319-2.8C16.103 3.706 14.192 3 12.012 3a9.899 9.899 0 0 0-2.34.266 1 1 0 1 0 .456 1.948zm-.101 6.228 2.531 2.531a2.003 2.003 0 0 1-2.531-2.532zM5.983 7.397 8.536 9.95a3.993 3.993 0 0 0-.608 2.266c.036 1.022.463 2.033 1.271 2.785s1.846 1.107 2.868 1.071a3.991 3.991 0 0 0 1.984-.608l2.322 2.322A8.962 8.962 0 0 1 11.989 19c-1.734 0-3.285-.559-4.634-1.393-1.119-.692-2.089-1.567-2.894-2.448a18.701 18.701 0 0 1-2.317-3.155 17.275 17.275 0 0 1 3.841-4.607zm-5.69-5.69 4.271 4.271a19.34 19.34 0 0 0-4.445 5.549.999.999 0 0 0-.013.92s.396.789 1.12 1.843a20.553 20.553 0 0 0 1.757 2.218c.894.979 2.004 1.987 3.319 2.8C7.897 20.294 9.808 21 12.012 21a10.98 10.98 0 0 0 5.815-1.759l4.466 4.466a.999.999 0 1 0 1.414-1.414l-8.876-8.876-.007-.007-4.209-4.21-.024-.024L1.707.293A.999.999 0 1 0 .293 1.707z"/>
    </symbol>
    <symbol id="icon-eye" viewBox="0 0 24 24">
      <path d="M.106 11.553a.997.997 0 0 0 0 .894s.396.789 1.12 1.843a20.553 20.553 0 0 0 1.757 2.218c.894.979 2.004 1.987 3.319 2.8C7.897 20.294 9.808 21 12 21s4.103-.706 5.698-1.692c1.315-.813 2.425-1.821 3.319-2.8a20.678 20.678 0 0 0 1.757-2.218 17.468 17.468 0 0 0 1.12-1.843.997.997 0 0 0 0-.894s-.396-.789-1.12-1.843a20.553 20.553 0 0 0-1.757-2.218c-.894-.979-2.004-1.987-3.319-2.8C16.103 3.706 14.192 3 12 3s-4.103.706-5.698 1.692c-1.315.813-2.425 1.821-3.319 2.8A20.455 20.455 0 0 0 1.226 9.71a17.468 17.468 0 0 0-1.12 1.843zM2.14 12a18.575 18.575 0 0 1 2.319-3.159c.805-.881 1.775-1.756 2.894-2.448C8.703 5.559 10.254 5 12 5s3.297.559 4.646 1.393c1.119.692 2.089 1.567 2.894 2.448A18.701 18.701 0 0 1 21.859 12a18.575 18.575 0 0 1-2.319 3.159c-.805.881-1.775 1.756-2.894 2.448C15.297 18.441 13.746 19 12 19s-3.297-.559-4.646-1.393c-1.119-.692-2.089-1.567-2.894-2.448A18.701 18.701 0 0 1 2.14 12zM16 12c0-1.104-.449-2.106-1.172-2.828a3.994 3.994 0 0 0-5.656 0 3.994 3.994 0 0 0 0 5.656 3.994 3.994 0 0 0 5.656 0A3.994 3.994 0 0 0 16 12zm-2 0c0 .553-.223 1.051-.586 1.414S12.553 14 12 14s-1.051-.223-1.414-.586S10 12.553 10 12s.223-1.051.586-1.414S11.447 10 12 10s1.051.223 1.414.586S14 11.447 14 12z"/>
    </symbol>
  </defs>
</svg>
